X:1
T:Title
%%score { 1 | 2 }
L:1/8
M:4/4
K:Ab
V:1 treble nm="Grand Piano"
V:2 bass 
V:1
 z4 z2[Q:1/4=88] [A,C][B,D] | [CE]2 [CA][DB] [Ec]2 [EB][EA] | [DF]2 [FA]4 [EG][DF] | %3
 [CE]2 [CA][Ec] [=Dc]2 [DB][DA] | [EB]6 [A,C][B,D] | [CE]2 [CA][DB] [Ec]2 [EB][EA] | %6
 [DF]2 [FA]4 [EG]F | E2 AB c2 B2 |[M:3/4] [CA]6 |[M:1/4] GA |[M:4/4] B2 Bc [Gd]2 cB | c2 e4 cd | %12
 e2 dc c2 [=DB][DA] | [EB]6 [A,C][B,D] | [CE]2 [CA][DB] [Ec]2 [EB][EA] | [DF]2 [Fd]4 [Fc][FB] | %16
 A2 AB c2 BB |[M:3/4] [CA]6 |] %18
V:2
 z4 z2 [A,,E,][A,,E,] | [A,,A,]2 [A,,A,][A,,A,] [A,,A,]2 [B,,G,][C,A,] | %2
 [D,A,]2 [D,D]4 [D,D][D,A,] | [A,,A,]2 [A,,A,][A,,A,] [B,,A,]2 [B,,A,][B,,B,] | %4
 [E,G,]6 [A,,E,][A,,E,] | [A,,A,]2 [A,,A,][A,,A,] [A,,A,]2 [B,,G,][C,A,] | %6
 [D,A,]2 [D,D]4 [D,D][D,A,D] | [E,A,C]2 [F,A,=D][F,A,D] [E,A,E]2 [E,G,_D]2 |[M:3/4] [A,,A,]6 | %9
[M:1/4] [E,B,E][E,CE] |[M:4/4] [E,DE]2 [E,DE][E,CE] [E,B,]2 [E,A,E][E,G,E] | %11
 [A,E]2 [A,CA]4 [A,E][A,B,E] | [A,CA]2[K:bass] [A,B,E][A,E] [F,A,=D]2 [B,,A,][B,,B,] | %13
 [E,G,]6 [A,,E,][A,,E,] | [A,,A,]2 [A,,A,][A,,A,] [A,,A,]2 [B,,G,][C,A,] | %15
 [D,A,]2 [D,A,]4 [D,A,][D,D] | [E,CE]2 [F,A,=D][F,A,D] [E,A,E]2 [E,G,_D][E,G,D] | %17
[M:3/4] [A,,A,]6 |] %18

